core/components/static/images/uk-export-academy-logo.svg

<svg width="224" height="141" viewBox="0 0 224 141" fill="none" xmlns="http://www.w3.org/2000/svg">
<path d="M19.3 120.04V45.8399L164.7 21.1399L166.3 46.3399C166.3 51.1399 170.2 55.0399 175 55.0399L204.4 53.9399V120.04C204.4 123.34 201.7 126.04 198.4 126.04H25.3C22 126.04 19.3 123.34 19.3 120.04Z" fill="#964F99"/>
<path opacity="0.7" d="M179.9 48.2399C186.2 42.8399 189.4 38.3399 195.7 33.0399V44.7399C195.7 45.9399 196.8 46.9399 198 46.7399L204.4 45.6399V20.2399C204.4 17.8399 202.5 15.9399 200.1 15.9399L174.2 19.7399L174.6 25.8399C174.7 27.2399 176 28.3399 177.4 28.1399L189.2 26.5399L173.6 41.4399C172.9 42.0399 172.5 42.9399 172.6 43.8399C172.7 44.9399 172.6 45.3399 173.6 46.7399C175.8 48.9399 176.4 48.7399 178 48.9399C178.7 48.9399 179.4 48.7399 179.9 48.2399Z" fill="#C78FBF"/>
<path d="M36.2 64.6399H40.8V78.3399C40.8 80.8399 42.1 82.2399 44.2 82.2399C46.2 82.2399 47.6 80.7399 47.6 78.3399V64.6399H52.2V78.6399C52.2 83.0399 48.6 86.1399 44.2 86.1399C39.8 86.1399 36.2 83.1399 36.2 78.6399V64.6399Z" fill="white"/>
<path d="M56.4 64.6399H61V72.4399L66.5 64.6399H71.9L65 73.8399L72.7 85.7399H67.3L62.2 77.6399L61 79.3399V85.7399H56.4V64.6399Z" fill="white"/>
<path d="M82.3 64.6399H94.9V68.5399H86.9V73.2399H93.6L93.4 76.9399H86.8V81.8399H95.1V85.7399H82.3V64.6399Z" fill="white"/>
<path d="M102 77.3398L97.4 69.3398H102.3L104.5 73.4398L106.8 69.3398H111.6L107 77.1398L112 85.6398H107L104.5 81.0398L101.9 85.6398H97L102 77.3398Z" fill="white"/>
<path d="M118.4 92.3398H113.9V75.8398C113.9 71.5398 117.1 69.0398 120.8 69.0398C124.5 69.0398 127.6 71.5398 127.6 75.8398V79.2398C127.6 83.8398 124.4 86.1398 121.1 86.1398C120.1 86.1398 119 85.7398 118.3 85.4398V92.3398H118.4ZM120.7 82.3398C122 82.3398 123.1 81.4398 123.1 79.1398V76.0398C123.1 73.8398 122.1 72.8398 120.7 72.8398C119.3 72.8398 118.3 73.9398 118.3 76.0398V81.8398C119.1 82.1398 119.9 82.3398 120.7 82.3398Z" fill="white"/>
<path d="M130.6 76.1398C130.6 71.6398 133.5 69.0398 137.6 69.0398C141.6 69.0398 144.6 71.7398 144.6 76.1398V78.9398C144.6 83.4398 141.7 86.0398 137.6 86.0398C133.6 86.0398 130.6 83.3398 130.6 78.9398V76.1398ZM137.6 82.3398C139.5 82.3398 140.1 80.9398 140.1 78.8398V76.3398C140.1 74.1398 139.4 72.8398 137.6 72.8398C135.7 72.8398 135.1 74.2398 135.1 76.3398V78.8398C135 80.9398 135.7 82.3398 137.6 82.3398Z" fill="white"/>
<path d="M147.9 75.3398C147.9 71.5398 150.8 69.0398 154.5 69.0398C155.5 69.0398 156.7 69.2398 157.6 69.5398L156.8 73.1398C156.1 72.9398 155.3 72.8398 154.6 72.8398C153.2 72.8398 152.4 73.9398 152.4 75.3398V85.7398H148V75.3398H147.9Z" fill="white"/>
<path d="M161.1 72.3398H159.1L158.4 69.3398H161.1V64.9398L165.6 64.3398V69.3398H168.2V72.3398H165.6V85.7398H161.1V72.3398Z" fill="white"/>
<path d="M43.1 95.0398H46L51.6 112.74H49L47.5 107.94H41.4L39.9 112.74H37.4L43.1 95.0398ZM46.9 105.84L45.2 100.34C45 99.6398 44.7 98.5398 44.4 97.5398C44.2 98.5398 43.9 99.5398 43.7 100.34L42 105.84H46.9Z" fill="white"/>
<path d="M53 104.74C53 100.64 55.3 98.8398 58.6 98.8398C59.9 98.8398 61.2 99.0398 62.4 99.4398L62 101.44C60.9 101.14 59.8 100.94 58.7 100.94C56.5 100.94 55.4 102.14 55.4 104.84V106.94C55.4 109.64 56.5 110.84 58.7 110.84C59.8 110.84 60.9 110.64 62 110.34L62.4 112.34C61.1 112.74 59.9 112.94 58.6 112.94C55.3 112.94 53 111.14 53 107.04V104.74Z" fill="white"/>
<path d="M69.9 104.54H72.5V103.84C72.5 102.04 71.6 100.94 69.9 100.94C68.7 100.94 67.5 101.24 66.3 101.54L65.8 99.5398C67.1 99.1398 68.5 98.8398 69.9 98.8398C72.9 98.8398 74.9 100.74 74.9 103.84V108.64C74.9 111.14 72.7 113.04 70 113.04C67.1 113.04 65 111.14 65 108.64C65 106.04 67 104.54 69.9 104.54ZM70 110.94C71.5 110.94 72.5 109.94 72.5 108.74V106.44H69.9C68.2 106.44 67.5 107.44 67.5 108.64C67.5 109.84 68.4 110.94 70 110.94Z" fill="white"/>
<path d="M77.7 104.54C77.7 100.64 80.1 98.9398 82.9 98.9398C84.1 98.9398 85.3 99.4398 86 99.8398V93.5398H88.4V107.44C88.4 111.04 86 113.04 83.1 113.04C80.2 113.04 77.8 111.04 77.8 107.44V104.54H77.7ZM83.1 110.94C84.7 110.94 86 109.74 86 107.34V101.94C85.1 101.44 84.1 101.04 83.1 101.04C81.5 101.04 80.1 101.94 80.1 104.74V107.34C80.1 109.74 81.4 110.94 83.1 110.94Z" fill="white"/>
<path d="M91.5 104.34C91.5 100.74 93.8 98.8398 96.7 98.8398C99.6 98.8398 101.9 100.84 101.9 103.84V106.64H93.9V107.44C93.9 109.84 95.1 110.94 97 110.94C98.3 110.94 99.4 110.64 100.6 110.34L101.1 112.44C99.7 112.84 98.5 113.14 97 113.14C93.8 113.14 91.5 111.24 91.5 107.54V104.34ZM99.5 104.74V103.84C99.5 102.14 98.4 100.94 96.7 100.94C95.1 100.94 93.9 102.04 93.9 104.14V104.74H99.5Z" fill="white"/>
<path d="M104.9 104.24C104.9 100.64 107.1 98.9397 109.8 98.9397C111.5 98.9397 112.8 99.9397 113.5 101.54C114.2 99.9397 115.5 98.9397 117.2 98.9397C119.9 98.9397 122.1 100.74 122.1 104.24V112.74H119.7V104.44C119.7 102.14 118.7 100.94 117.2 100.94C115.7 100.94 114.7 102.24 114.7 104.84V112.64H112.3V104.84C112.3 102.24 111.3 100.94 109.7 100.94C108.2 100.94 107.2 102.14 107.2 104.44V112.64H104.8V104.24H104.9Z" fill="white"/>
<path d="M124.9 99.2397H127.3L128.5 107.74C128.7 109.44 129.4 110.54 130.9 110.54H132.2L133.6 99.2397H136L133.5 118.24H131.1L131.8 112.74H130.7C127.7 112.74 126.3 110.84 125.9 108.04L124.9 99.2397Z" fill="white"/>
</svg>

<svg xmlns="http://www.w3.org/2000/svg" width="224" height="141" fill="none"><path fill="#964F99" d="M19.3 120.04v-74.2l145.4-24.7 1.6 25.2c0 4.8 3.9 8.7 8.7 8.7l29.4-1.1v66.1c0 3.3-2.7 6-6 6H25.3c-3.3 0-6-2.7-6-6Z"/><path fill="#D7B0D3" d="M179.9 48.24c6.3-5.4 9.5-9.9 15.8-15.2v11.7c0 1.2 1.1 2.2 2.3 2l6.4-1.1v-25.4c0-2.4-1.9-4.3-4.3-4.3l-25.9 3.8.4 6.1c.1 1.4 1.4 2.5 2.8 2.3l11.8-1.6-15.6 14.9c-.7.6-1.1 1.5-1 2.4.1 1.1 0 1.5 1 2.9 2.2 2.2 2.8 2 4.4 2.2.7 0 1.4-.2 1.9-.7Z"/><path fill="#fff" d="M36.2 64.64h4.6v13.7c0 2.5 1.3 3.9 3.4 3.9 2 0 3.4-1.5 3.4-3.9v-13.7h4.6v14c0 4.4-3.6 7.5-8 7.5s-8-3-8-7.5v-14ZM56.4 64.64H61v7.8l5.5-7.8h5.4l-6.9 9.2 7.7 11.9h-5.4l-5.1-8.1-1.2 1.7v6.4h-4.6v-21.1ZM82.3 64.64h12.6v3.9h-8v4.7h6.7l-.2 3.7h-6.6v4.9h8.3v3.9H82.3v-21.1ZM102 77.34l-4.6-8h4.9l2.2 4.1 2.3-4.1h4.8l-4.6 7.8 5 8.5h-5l-2.5-4.6-2.6 4.6H97l5-8.3ZM118.4 92.34h-4.5v-16.5c0-4.3 3.2-6.8 6.9-6.8s6.8 2.5 6.8 6.8v3.4c0 4.6-3.2 6.9-6.5 6.9-1 0-2.1-.4-2.8-.7v6.9h.1Zm2.3-10c1.3 0 2.4-.9 2.4-3.2v-3.1c0-2.2-1-3.2-2.4-3.2s-2.4 1.1-2.4 3.2v5.8c.8.3 1.6.5 2.4.5ZM130.6 76.14c0-4.5 2.9-7.1 7-7.1 4 0 7 2.7 7 7.1v2.8c0 4.5-2.9 7.1-7 7.1-4 0-7-2.7-7-7.1v-2.8Zm7 6.2c1.9 0 2.5-1.4 2.5-3.5v-2.5c0-2.2-.7-3.5-2.5-3.5-1.9 0-2.5 1.4-2.5 3.5v2.5c-.1 2.1.6 3.5 2.5 3.5ZM147.9 75.34c0-3.8 2.9-6.3 6.6-6.3 1 0 2.2.2 3.1.5l-.8 3.6c-.7-.2-1.5-.3-2.2-.3-1.4 0-2.2 1.1-2.2 2.5v10.4H148v-10.4h-.1ZM161.1 72.34h-2l-.7-3h2.7v-4.4l4.5-.6v5h2.6v3h-2.6v13.4h-4.5v-13.4ZM43.1 95.04H46l5.6 17.7H49l-1.5-4.8h-6.1l-1.5 4.8h-2.5l5.7-17.7Zm3.8 10.8-1.7-5.5c-.2-.7-.5-1.8-.8-2.8-.2 1-.5 2-.7 2.8l-1.7 5.5h4.9ZM53 104.74c0-4.1 2.3-5.9 5.6-5.9 1.3 0 2.6.2 3.8.6l-.4 2c-1.1-.3-2.2-.5-3.3-.5-2.2 0-3.3 1.2-3.3 3.9v2.1c0 2.7 1.1 3.9 3.3 3.9 1.1 0 2.2-.2 3.3-.5l.4 2c-1.3.4-2.5.6-3.8.6-3.3 0-5.6-1.8-5.6-5.9v-2.3ZM69.9 104.54h2.6v-.7c0-1.8-.9-2.9-2.6-2.9-1.2 0-2.4.3-3.6.6l-.5-2c1.3-.4 2.7-.7 4.1-.7 3 0 5 1.9 5 5v4.8c0 2.5-2.2 4.4-4.9 4.4-2.9 0-5-1.9-5-4.4 0-2.6 2-4.1 4.9-4.1Zm.1 6.4c1.5 0 2.5-1 2.5-2.2v-2.3h-2.6c-1.7 0-2.4 1-2.4 2.2 0 1.2.9 2.3 2.5 2.3ZM77.7 104.54c0-3.9 2.4-5.6 5.2-5.6 1.2 0 2.4.5 3.1.9v-6.3h2.4v13.9c0 3.6-2.4 5.6-5.3 5.6s-5.3-2-5.3-5.6v-2.9h-.1Zm5.4 6.4c1.6 0 2.9-1.2 2.9-3.6v-5.4c-.9-.5-1.9-.9-2.9-.9-1.6 0-3 .9-3 3.7v2.6c0 2.4 1.3 3.6 3 3.6ZM91.5 104.34c0-3.6 2.3-5.5 5.2-5.5 2.9 0 5.2 2 5.2 5v2.8h-8v.8c0 2.4 1.2 3.5 3.1 3.5 1.3 0 2.4-.3 3.6-.6l.5 2.1c-1.4.4-2.6.7-4.1.7-3.2 0-5.5-1.9-5.5-5.6v-3.2Zm8 .4v-.9c0-1.7-1.1-2.9-2.8-2.9-1.6 0-2.8 1.1-2.8 3.2v.6h5.6ZM104.9 104.24c0-3.6 2.2-5.3 4.9-5.3 1.7 0 3 1 3.7 2.6.7-1.6 2-2.6 3.7-2.6 2.7 0 4.9 1.8 4.9 5.3v8.5h-2.4v-8.3c0-2.3-1-3.5-2.5-3.5s-2.5 1.3-2.5 3.9v7.8h-2.4v-7.8c0-2.6-1-3.9-2.6-3.9-1.5 0-2.5 1.2-2.5 3.5v8.2h-2.4v-8.4h.1ZM124.9 99.24h2.4l1.2 8.5c.2 1.7.9 2.8 2.4 2.8h1.3l1.4-11.3h2.4l-2.5 19h-2.4l.7-5.5h-1.1c-3 0-4.4-1.9-4.8-4.7l-1-8.8Z"/></svg>
